X:1
T:The Coalminer's
R:reel
M:4/4
L:1/8
K:D
|:A,DFD EDDA-|ADFD EDB,^G,|A,DFD EDDB|dBAF ~E2DB,|
|A,DFD EDDA-|ADFD EDB,^G,|A,DFD EDDB|1 dBAF D2DB,:|2 dBAF D2 (3ABc|]
|:~d2dB ABdB|~A2FD EDB,D|~d2dB ABde|fedf ~e2de|
|fd~d2 efdB|~A2FD EDB,^G,|A,DFD EDDB|1 dBAF D2 (3ABc:|2 dBAF D2DB,|]